communes/5483.svg

<?xml version="1.0" encoding="UTF-8"?>
<svg version="1.0" viewBox="0 0 603 763" xmlns="http://www.w3.org/2000/svg" xmlns:cc="http://creativecommons.org/ns#" xmlns:dc="http://purl.org/dc/elements/1.1/" xmlns:rdf="http://www.w3.org/1999/02/22-rdf-syntax-ns#" xmlns:xlink="http://www.w3.org/1999/xlink">
<metadata>
<rdf:RDF>
<cc:Work rdf:about="">
<dc:format>image/svg+xml</dc:format>
<dc:type rdf:resource="http://purl.org/dc/dcmitype/StillImage"/>
<dc:date>07-AUG-2006</dc:date>
<dc:creator>
<cc:Agent>
<dc:title>Jérôme BLUM (wagner51)</dc:title>
</cc:Agent>
</dc:creator>
<cc:license rdf:resource="http://creativecommons.org/licenses/GPL/2.0/"/>
<dc:coverage/>
<dc:description>Gabarit pour le Projet:Blasons de WIkipédia</dc:description>
<dc:subject>
<rdf:Bag>
<rdf:li>blason suisse modèle gabarit projet blasons</rdf:li>
</rdf:Bag>
</dc:subject>
<dc:language>fr</dc:language>
<dc:title>Gabrit d'un blason suisse</dc:title>
</cc:Work>
<cc:License rdf:about="http://creativecommons.org/licenses/GPL/2.0/">
<cc:permits rdf:resource="http://web.resource.org/cc/Reproduction"/>
<cc:permits rdf:resource="http://web.resource.org/cc/Distribution"/>
<cc:requires rdf:resource="http://web.resource.org/cc/Notice"/>
<cc:permits rdf:resource="http://web.resource.org/cc/DerivativeWorks"/>
<cc:requires rdf:resource="http://web.resource.org/cc/ShareAlike"/>
<cc:requires rdf:resource="http://web.resource.org/cc/SourceCode"/>
</cc:License>
</rdf:RDF>
</metadata>
<defs>
<radialGradient id="a" cx="858.04" cy="579.93" r="300" gradientTransform="matrix(1.215 1.5316e-24 1.4647e-23 1.2667 -839.19 -490.49)" gradientUnits="userSpaceOnUse">
<stop stop-color="#fff" stop-opacity=".31373" offset="0"/>
<stop stop-color="#fff" stop-opacity=".25098" offset=".19"/>
<stop stop-color="#6b6b6b" stop-opacity=".12549" offset=".6"/>
<stop stop-opacity=".12549" offset="1"/>
</radialGradient>
</defs>
<desc>Coat of Arms of Canton of Freiburg (Fribourg)</desc>
<g>
<path d="m1.5 1.5v458.87c0 166.31 134.31 301.13 300 301.13 165.69 0 300-134.82 300-301.13v-458.87h-600z" fill="#2b5df2"/>
<g stroke="#000" stroke-linecap="round" stroke-linejoin="round">
<path d="m332.32 123.12c-9.748-1.209-20.002-1.86-30.816-1.86-10.815 0-21.069 0.651-30.817 1.86-1.337 0.166-3.982 1.736-3.982 3.982v12.352c0 2.435 1.974 4.408 4.408 4.408h60.781c2.435 0 4.407-1.974 4.407-4.408v-12.352c0-2.247-2.645-3.816-3.981-3.982z" fill="#fcef3c" stroke-width="3"/>
<path d="m301.5 134.4c-165.25 0-209.57 149.34-205.51 227.37 3.961 76.111 31.714 137.52 59.319 194.47l25.908-3.424 9.731-12.466c-15.784-35.729-46.924-104.87-46.924-183.09 0-102.12 81.901-162.38 157.48-162.38s157.48 60.261 157.48 162.38c0 78.217-31.974 149.26-47.757 184.99l10.564 10.564 25.908 3.424c27.604-56.951 55.357-118.36 59.319-194.47 4.062-78.027-40.258-227.37-205.51-227.37z" fill="#fcef3c" stroke-width="3"/>
<path d="m183.87 556.64c9.062-5.495 8.836-12.272 7.073-16.297l-6.486-14.805c6.367 14.549 1.636 19.97-1.993 22.131-3.628 2.16-9.158 1.641-13.953-6.394l-34.471 17.495c4.276 8.424 10.721 20.089 27.602 10.498l22.228-12.628s-4.948 2.81 0 0z" fill="#fcef3c" stroke-width="3"/>
<path d="m419.13 556.64c-9.062-5.495-8.836-12.272-7.072-16.297l6.485-14.805c-6.366 14.549-1.636 19.97 1.993 22.131 3.628 2.16 9.157 1.641 13.952-6.394l34.472 17.494c-4.276 8.424-10.722 20.089-27.603 10.498l-22.227-12.627s4.947 2.81 0 0z" fill="#fcef3c" stroke-width="3"/>
<path d="m240.72 176.74c-62.402 23.633-122.1 82.386-122.1 172.74 0 46.364 14.783 96.953 26.605 130.87" fill="none" stroke-width="3"/>
<path d="m457.55 480.99c11.858-33.92 26.826-84.85 26.826-131.5 0-90.034-59.27-148.69-121.43-172.49" fill="none" stroke-width="3"/>
<circle transform="translate(-.038 -.045)" cx="145.26" cy="480.37" r="8.121"/>
<circle transform="translate(-.038 -.045)" cx="125.26" cy="409.1" r="8.121"/>
<circle transform="translate(-.038 -.045)" cx="119.13" cy="335.8" r="8.121"/>
<circle transform="translate(-.038 -.045)" cx="140.3" cy="262.38" r="8.121"/>
<circle transform="translate(-.038 -.045)" cx="184.39" cy="209.46" r="8.121"/>
<circle transform="translate(-.038 -.045)" cx="240.76" cy="176.79" r="8.121"/>
<circle transform="translate(-.038 -.045)" cx="457.82" cy="480.37" r="8.121"/>
<circle transform="translate(-.038 -.045)" cx="477.81" cy="409.1" r="8.121"/>
<circle transform="translate(-.038 -.045)" cx="483.95" cy="335.8" r="8.121"/>
<circle transform="translate(-.038 -.045)" cx="462.77" cy="262.38" r="8.121"/>
<circle transform="translate(-.038 -.045)" cx="418.69" cy="209.46" r="8.121"/>
<circle transform="translate(-.038 -.045)" cx="362.32" cy="176.79" r="8.121"/>
</g>
</g>
<g>
<path d="m1.5 1.5v458.87c0 166.31 134.31 301.13 300 301.13 165.69 0 300-134.82 300-301.13v-458.87h-600z" fill="url(#a)"/>
<path d="m1.5 1.5v458.87c0 166.31 134.31 301.13 300 301.13 165.69 0 300-134.82 300-301.13v-458.87h-600z" fill="none" stroke="#000" stroke-width="3"/>
</g>
</svg>

<?xml version="1.0" encoding="UTF-8" standalone="no"?>
<svg
   xmlns:dc="http://purl.org/dc/elements/1.1/"
   xmlns:cc="http://creativecommons.org/ns#"
   xmlns:rdf="http://www.w3.org/1999/02/22-rdf-syntax-ns#"
   xmlns:svg="http://www.w3.org/2000/svg"
   xmlns="http://www.w3.org/2000/svg"
   xmlns:xlink="http://www.w3.org/1999/xlink"
   xmlns:sodipodi="http://sodipodi.sourceforge.net/DTD/sodipodi-0.dtd"
   xmlns:inkscape="http://www.inkscape.org/namespaces/inkscape"
   height="763"
   width="603"
   version="1.0"
   id="svg20"
   sodipodi:version="0.32"
   inkscape:version="0.46"
   sodipodi:docname="Ferreyres-coat_of_arms.svg"
   sodipodi:docbase="C:\Documents and Settings\Steve\Bureau\Blason Villages Suisse pour Wikipédia (par Delta-9)"
   inkscape:output_extension="org.inkscape.output.svg.inkscape">
  <metadata
     id="metadata31">
    <rdf:RDF>
      <cc:Work
         rdf:about="">
        <dc:format>image/svg+xml</dc:format>
        <dc:type
           rdf:resource="http://purl.org/dc/dcmitype/StillImage" />
        <dc:date>07-AUG-2006</dc:date>
        <dc:creator>
          <cc:Agent>
            <dc:title>Jérôme BLUM (wagner51)</dc:title>
          </cc:Agent>
        </dc:creator>
        <cc:license
           rdf:resource="http://creativecommons.org/licenses/GPL/2.0/" />
        <dc:coverage />
        <dc:description>Gabarit pour le Projet:Blasons de WIkipédia</dc:description>
        <dc:subject>
          <rdf:Bag>
            <rdf:li>blason suisse modèle gabarit projet blasons</rdf:li>
          </rdf:Bag>
        </dc:subject>
        <dc:language>fr</dc:language>
        <dc:title>Gabrit d'un blason suisse</dc:title>
      </cc:Work>
      <cc:License
         rdf:about="http://creativecommons.org/licenses/GPL/2.0/">
        <cc:permits
           rdf:resource="http://web.resource.org/cc/Reproduction" />
        <cc:permits
           rdf:resource="http://web.resource.org/cc/Distribution" />
        <cc:requires
           rdf:resource="http://web.resource.org/cc/Notice" />
        <cc:permits
           rdf:resource="http://web.resource.org/cc/DerivativeWorks" />
        <cc:requires
           rdf:resource="http://web.resource.org/cc/ShareAlike" />
        <cc:requires
           rdf:resource="http://web.resource.org/cc/SourceCode" />
      </cc:License>
    </rdf:RDF>
  </metadata>
  <defs
     id="defs29"><inkscape:perspective
   sodipodi:type="inkscape:persp3d"
   inkscape:vp_x="0 : 381.5 : 1"
   inkscape:vp_y="0 : 1000 : 0"
   inkscape:vp_z="603 : 381.5 : 1"
   inkscape:persp3d-origin="301.5 : 254.33333 : 1"
   id="perspective28" />
<linearGradient
   id="linearGradient2893">
  <stop
     style="stop-color:#ffffff;stop-opacity:0.3137255;"
     offset="0"
     id="stop2895" />
  <stop
     id="stop2897"
     offset="0.19"
     style="stop-color:#ffffff;stop-opacity:0.25098041;" />
  <stop
     style="stop-color:#6b6b6b;stop-opacity:0.1254902;"
     offset="0.60000002"
     id="stop2901" />
  <stop
     style="stop-color:#000000;stop-opacity:0.1254902;"
     offset="1"
     id="stop2899" />
</linearGradient>
<linearGradient
   id="linearGradient2955">
  <stop
     style="stop-color:white;stop-opacity:0;"
     offset="0"
     id="stop2965" />
  <stop
     style="stop-color:black;stop-opacity:0.64583331;"
     offset="1"
     id="stop2959" />
</linearGradient>
<radialGradient
   inkscape:collect="always"
   xlink:href="#linearGradient2893"
   id="radialGradient3236"
   gradientUnits="userSpaceOnUse"
   gradientTransform="matrix(1.215027,1.531577e-24,1.464684e-23,1.266667,-839.1924,-490.4894)"
   cx="858.04236"
   cy="579.93323"
   fx="858.04236"
   fy="579.93323"
   r="300" />
<inkscape:perspective
   id="perspective2546"
   inkscape:persp3d-origin="297.63751 : 280.63 : 1"
   inkscape:vp_z="595.27502 : 420.94501 : 1"
   inkscape:vp_y="0 : 1000 : 0"
   inkscape:vp_x="0 : 420.94501 : 1"
   sodipodi:type="inkscape:persp3d" />

	
	
	

	

		
		
		
		
		
		
		
		
		
		
		
		
	
		
		
	
		
		
		
		
	</defs>
  <sodipodi:namedview
     inkscape:window-height="968"
     inkscape:window-width="1280"
     inkscape:pageshadow="2"
     inkscape:pageopacity="0.0"
     guidetolerance="10.0"
     gridtolerance="10.0"
     objecttolerance="10.0"
     borderopacity="1.0"
     bordercolor="#666666"
     pagecolor="#ffffff"
     id="base"
     inkscape:zoom="0.92652193"
     inkscape:cx="173.53758"
     inkscape:cy="399.00713"
     inkscape:window-x="1280"
     inkscape:window-y="22"
     inkscape:current-layer="layer2"
     showgrid="false"
     showguides="true"
     inkscape:guide-bbox="true">
    <sodipodi:guide
       orientation="horizontal"
       position="761.5"
       id="guide1885" />
    <sodipodi:guide
       orientation="vertical"
       position="1.5"
       id="guide1887" />
    <sodipodi:guide
       orientation="horizontal"
       position="1.5"
       id="guide1889" />
    <sodipodi:guide
       orientation="vertical"
       position="601.5"
       id="guide1891" />
    <sodipodi:guide
       orientation="vertical"
       position="301.50081"
       id="guide1893" />
  </sodipodi:namedview>
  <desc
     id="desc22">Coat of Arms of Canton of Freiburg (Fribourg)</desc>
  <g
     inkscape:groupmode="layer"
     id="layer1"
     inkscape:label="Fond écu"
     style="opacity:1;display:inline"
     sodipodi:insensitive="true">
    <path
       d="M 1.5,1.5 L 1.5,460.369 C 1.5,626.68 135.814,761.5 301.5,761.5 C 467.188,761.5 601.5,626.68 601.5,460.369 L 601.5,1.5 L 1.5,1.5 z"
       id="path2706"
       style="opacity:1;fill:#2b5df2" />
  </g>
  <g
     inkscape:groupmode="layer"
     id="layer2"
     inkscape:label="Meubles"
     style="opacity:1;display:inline"
     sodipodi:insensitive="true">
    <g
       id="g2642">
      <path
         id="path2501"
         d="M 332.316,123.125 C 322.568,121.916 312.314,121.265 301.5,121.265 C 290.685,121.265 280.431,121.916 270.683,123.125 C 269.346,123.291 266.701,124.861 266.701,127.107 C 266.701,129.353 266.701,139.459 266.701,139.459 C 266.701,141.894 268.675,143.867 271.109,143.867 L 331.89,143.867 C 334.325,143.867 336.297,141.893 336.297,139.459 C 336.297,139.459 336.297,129.354 336.297,127.107 C 336.297,124.86 333.652,123.291 332.316,123.125 z"
         style="fill:#fcef3c;stroke:#000000;stroke-width:3;stroke-linecap:round;stroke-linejoin:round" />
      <path
         id="path2503"
         d="M 301.499,134.397 C 136.245,134.397 91.925,283.74 95.985,361.767 C 99.946,437.878 127.699,499.287 155.304,556.238 L 181.212,552.814 L 190.943,540.348 C 175.159,504.619 144.019,435.478 144.019,357.261 C 144.019,255.143 225.92,194.883 301.498,194.883 C 377.076,194.883 458.977,255.144 458.977,357.261 C 458.977,435.478 427.003,506.521 411.22,542.25 L 421.784,552.814 L 447.692,556.238 C 475.296,499.287 503.049,437.878 507.011,361.767 C 511.073,283.74 466.753,134.397 301.499,134.397 z"
         style="fill:#fcef3c;stroke:#000000;stroke-width:3;stroke-linecap:round;stroke-linejoin:round" />
      <path
         id="path2505"
         d="M 183.872,556.645 C 192.934,551.15 192.708,544.373 190.945,540.348 L 190.945,540.348 L 184.459,525.543 C 190.826,540.092 186.095,545.513 182.466,547.674 C 178.838,549.834 173.308,549.315 168.513,541.28 L 134.042,558.775 C 138.318,567.199 144.763,578.864 161.644,569.273 L 183.872,556.645 C 183.872,556.645 178.924,559.455 183.872,556.645 z"
         style="fill:#fcef3c;stroke:#000000;stroke-width:3;stroke-linecap:round;stroke-linejoin:round" />
      <path
         id="path2507"
         d="M 419.126,556.645 C 410.064,551.15 410.29,544.373 412.054,540.348 L 412.054,540.348 L 418.539,525.543 C 412.173,540.092 416.903,545.513 420.532,547.674 C 424.16,549.834 429.689,549.315 434.484,541.28 L 468.956,558.774 C 464.68,567.198 458.234,578.863 441.353,569.272 L 419.126,556.645 C 419.126,556.645 424.073,559.455 419.126,556.645 z"
         style="fill:#fcef3c;stroke:#000000;stroke-width:3;stroke-linecap:round;stroke-linejoin:round" />
      <path
         id="path2511"
         d="M 240.717,176.743 C 178.315,200.376 118.621,259.129 118.621,349.485 C 118.621,395.849 133.404,446.438 145.226,480.357"
         style="fill:none;stroke:#000000;stroke-width:3;stroke-linecap:round;stroke-linejoin:round" />
      <path
         id="path2513"
         d="M 457.552,480.988 C 469.41,447.068 484.378,396.138 484.378,349.486 C 484.378,259.452 425.108,200.796 362.949,176.999"
         style="fill:none;stroke:#000000;stroke-width:3;stroke-linecap:round;stroke-linejoin:round" />
      <circle
         transform="translate(-3.8e-2,-4.5e-2)"
         id="circle2517"
         r="8.1210003"
         cy="480.37399"
         cx="145.255"
         sodipodi:cx="145.255"
         sodipodi:cy="480.37399"
         sodipodi:rx="8.1210003"
         sodipodi:ry="8.1210003"
         style="stroke:#000000;stroke-linecap:round;stroke-linejoin:round" />
      <circle
         transform="translate(-3.8e-2,-4.5e-2)"
         id="circle2519"
         r="8.1210003"
         cy="409.104"
         cx="125.263"
         sodipodi:cx="125.263"
         sodipodi:cy="409.104"
         sodipodi:rx="8.1210003"
         sodipodi:ry="8.1210003"
         style="stroke:#000000;stroke-linecap:round;stroke-linejoin:round" />
      <circle
         transform="translate(-3.8e-2,-4.5e-2)"
         id="circle2521"
         r="8.1210003"
         cy="335.80099"
         cx="119.128"
         sodipodi:cx="119.128"
         sodipodi:cy="335.80099"
         sodipodi:rx="8.1210003"
         sodipodi:ry="8.1210003"
         style="stroke:#000000;stroke-linecap:round;stroke-linejoin:round" />
      <circle
         transform="translate(-3.8e-2,-4.5e-2)"
         id="circle2523"
         r="8.1210003"
         cy="262.375"
         cx="140.302"
         sodipodi:cx="140.302"
         sodipodi:cy="262.375"
         sodipodi:rx="8.1210003"
         sodipodi:ry="8.1210003"
         style="stroke:#000000;stroke-linecap:round;stroke-linejoin:round" />
      <circle
         transform="translate(-3.8e-2,-4.5e-2)"
         id="circle2525"
         r="8.1210003"
         cy="209.455"
         cx="184.388"
         sodipodi:cx="184.388"
         sodipodi:cy="209.455"
         sodipodi:rx="8.1210003"
         sodipodi:ry="8.1210003"
         style="stroke:#000000;stroke-linecap:round;stroke-linejoin:round" />
      <circle
         transform="translate(-3.8e-2,-4.5e-2)"
         id="circle2527"
         r="8.1210003"
         cy="176.79201"
         cx="240.756"
         sodipodi:cx="240.756"
         sodipodi:cy="176.79201"
         sodipodi:rx="8.1210003"
         sodipodi:ry="8.1210003"
         style="stroke:#000000;stroke-linecap:round;stroke-linejoin:round" />
      <circle
         transform="translate(-3.8e-2,-4.5e-2)"
         id="circle2529"
         r="8.1210003"
         cy="480.37399"
         cx="457.819"
         sodipodi:cx="457.819"
         sodipodi:cy="480.37399"
         sodipodi:rx="8.1210003"
         sodipodi:ry="8.1210003"
         style="stroke:#000000;stroke-linecap:round;stroke-linejoin:round" />
      <circle
         transform="translate(-3.8e-2,-4.5e-2)"
         id="circle2531"
         r="8.1210003"
         cy="409.104"
         cx="477.811"
         sodipodi:cx="477.811"
         sodipodi:cy="409.104"
         sodipodi:rx="8.1210003"
         sodipodi:ry="8.1210003"
         style="stroke:#000000;stroke-linecap:round;stroke-linejoin:round" />
      <circle
         transform="translate(-3.8e-2,-4.5e-2)"
         id="circle2533"
         r="8.1210003"
         cy="335.80099"
         cx="483.94601"
         sodipodi:cx="483.94601"
         sodipodi:cy="335.80099"
         sodipodi:rx="8.1210003"
         sodipodi:ry="8.1210003"
         style="stroke:#000000;stroke-linecap:round;stroke-linejoin:round" />
      <circle
         transform="translate(-3.8e-2,-4.5e-2)"
         id="circle2535"
         r="8.1210003"
         cy="262.375"
         cx="462.772"
         sodipodi:cx="462.772"
         sodipodi:cy="262.375"
         sodipodi:rx="8.1210003"
         sodipodi:ry="8.1210003"
         style="stroke:#000000;stroke-linecap:round;stroke-linejoin:round" />
      <circle
         transform="translate(-3.8e-2,-4.5e-2)"
         id="circle2537"
         r="8.1210003"
         cy="209.455"
         cx="418.686"
         sodipodi:cx="418.686"
         sodipodi:cy="209.455"
         sodipodi:rx="8.1210003"
         sodipodi:ry="8.1210003"
         style="stroke:#000000;stroke-linecap:round;stroke-linejoin:round" />
      <circle
         transform="translate(-3.8e-2,-4.5e-2)"
         id="circle2539"
         r="8.1210003"
         cy="176.79201"
         cx="362.31699"
         sodipodi:cx="362.31699"
         sodipodi:cy="176.79201"
         sodipodi:rx="8.1210003"
         sodipodi:ry="8.1210003"
         style="stroke:#000000;stroke-linecap:round;stroke-linejoin:round" />
    </g>
  </g>
  <g
     inkscape:groupmode="layer"
     id="layer3"
     inkscape:label="Reflet final"
     style="display:inline"
     sodipodi:insensitive="true">
    <path
       style="fill:url(#radialGradient3236);fill-opacity:1"
       d="M 1.5,1.5 L 1.5,460.3679 C 1.5,626.67854 135.81454,761.5 301.49993,761.5 C 467.1854,761.5 601.5,626.67854 601.5,460.3679 L 601.5,1.5 L 1.5,1.5 z "
       id="path2346" />
  </g>
  <g
     inkscape:groupmode="layer"
     id="layer4"
     inkscape:label="Contour final"
     style="display:inline"
     sodipodi:insensitive="true">
    <path
       style="fill:none;fill-opacity:1;stroke:#000000;stroke-width:3;stroke-miterlimit:4;stroke-dasharray:none;stroke-opacity:1"
       d="M 1.5,1.5 L 1.5,460.36794 C 1.5,626.67854 135.81454,761.5 301.49993,761.5 C 467.1854,761.5 601.5,626.67854 601.5,460.36794 L 601.5,1.5 L 1.5,1.5 z "
       id="path3239" />
  </g>
</svg>
